public/images/icons/email-check.svg

<svg xmlns="http://www.w3.org/2000/svg" fill="currentColor" viewBox="0 0 24 24"><path d="M13 19c0-3.31 2.69-6 6-6 1.1 0 2.12.3 3 .81V6a2 2 0 0 0-2-2H4c-1.11 0-2 .89-2 2v12a2 2 0 0 0 2 2h9.09c-.05-.33-.09-.66-.09-1M4 8V6l8 5 8-5v2l-8 5-8-5m13.75 14.16-2.75-3L16.16 18l1.59 1.59L21.34 16l1.16 1.41-4.75 4.75"/></svg>

<svg xmlns="http://www.w3.org/2000/svg" viewBox="0 0 24 24" fill="currentColor"><path d="M13 19C13 15.69 15.69 13 19 13C20.1 13 21.12 13.3 22 13.81V6C22 4.89 21.1 4 20 4H4C2.89 4 2 4.89 2 6V18C2 19.11 2.9 20 4 20H13.09C13.04 19.67 13 19.34 13 19M4 8V6L12 11L20 6V8L12 13L4 8M17.75 22.16L15 19.16L16.16 18L17.75 19.59L21.34 16L22.5 17.41L17.75 22.16" /></svg>
